X: 3
T: The Ballyfin Slide
T: Padraigh O'Keeffe's Slide
M: 12/8
L: 1/8
R: slide
K: Dmaj
|: e |\
f3 fef g3 g2 f | ecA ecA f3 f2 e |
d2 d dcd efg e2 d | cec ABc d2 A d2 :|
|: G |\
FAA AFD GBB B2 d | cec ABc d2 e f3 |
[1 F2 A AF/G/A G2 B BB/c/d | cec AA/B/c d3 d2 :|
[2 F2 A A^GA BcB B^AB | cec AA/B/c d3- d2 |]
